X: 8286
T: Corner House, The
R: polka
M: 2/4
K: Gmajor
|:G B/d/ ed|gd ed|G B/d/ ed|BA A2|
G B/d/ ed|gd ed|B/c/d ef|ag g2:|
|:g a/g/ ed|Bd d2|g a/g/ ed|ea a2|
g a/g/ ed|Bd d2|B/c/d ef|ag g2:|

